assets/icons/classroom.svg

<?xml version="1.0" encoding="UTF-8"?>
<svg width="24px" height="24px" viewBox="0 0 24 24" version="1.1" xmlns="http://www.w3.org/2000/svg" xmlns:xlink="http://www.w3.org/1999/xlink">
    <title>VW/Icons/classroom</title>
    <defs>
        <path d="M12,6.29999998 C12,6.29999998 12,6.29999998 12,6.29999998 C13.425,6.29999998 14.55,5.09999997 14.55,3.82499997 C14.55,3.14999996 14.25,2.54999996 13.8,2.02499996 C13.35,1.57499996 12.675,1.27499996 12,1.27499996 C12,1.27499996 12,1.27499996 11.925,1.27499996 C10.575,1.27499996 9.44999999,2.39999996 9.44999999,3.74999997 C9.44999999,4.42499997 9.74999999,5.09999997 10.2,5.54999997 C10.725,6.07499998 11.325,6.29999998 12,6.29999998 Z M11.925,1.72499996 C12,1.72499996 12,1.72499996 11.925,1.72499996 C12.525,1.72499996 13.05,1.94999996 13.425,2.32499996 C13.8,2.69999996 14.025,3.22499996 14.025,3.82499997 L14.025,3.82499997 C14.025,4.94999997 13.05,5.84999997 12,5.92499997 C11.4,5.92499997 10.875,5.69999997 10.5,5.32499997 C10.125,4.94999997 9.89999999,4.42499997 9.89999999,3.82499997 C9.89999999,2.62499996 10.8,1.72499996 11.925,1.72499996 Z M15.975,9.29999999 C15.975,8.09999998 15.225,7.42499998 14.4,6.89999998 C13.425,6.22499998 12.825,6.82499998 12.375,7.27499998 C12.225,7.42499998 12.15,7.49999998 12,7.64999998 C11.85,7.57499998 11.7,7.42499998 11.625,7.27499998 C11.175,6.82499998 10.725,6.29999998 9.74999999,6.82499998 C8.92499999,7.34999998 8.09999998,7.94999998 8.02499998,9.29999999 L8.02499998,9.52499999 L15.975,9.52499999 L15.975,9.29999999 Z M8.47499999,9.14999999 C8.62499999,8.24999998 9.14999999,7.72499998 9.97499999,7.27499998 C10.65,6.89999998 10.875,7.19999998 11.325,7.64999998 C11.475,7.87499998 11.7,8.02499998 11.925,8.17499998 L12,8.24999998 L12.075,8.17499998 C12.3,8.02499998 12.45,7.87499998 12.6,7.72499998 C13.05,7.27499998 13.425,6.89999998 14.1,7.42499998 C14.85,7.94999998 15.375,8.39999998 15.45,9.22499999 L8.47499999,9.22499999 L8.47499999,9.14999999 Z M3.37499996,19.5 C1.19999995,19.575 -5.00000006e-08,21.15 -5.00000006e-08,22.65 L0.449999952,22.65 C0.449999952,21.375 1.49999995,19.95 3.37499996,19.95 C5.32499997,19.875 6.74999998,21 6.89999998,22.65 L7.34999998,22.65 C7.12499998,20.7 5.54999997,19.425 3.37499996,19.5 Z M12.075,19.5 L12.075,19.5 C9.67499999,19.5 8.39999999,21.075 8.32499998,22.65 L8.77499999,22.65 C8.77499999,21.3 9.89999999,19.95 12.075,19.95 L12.075,19.95 C14.1,19.95 15.225,21.375 15.225,22.65 L15.675,22.65 C15.6,20.85 14.1,19.5 12.075,19.5 Z M20.55,19.5 C20.475,19.5 20.475,19.5 20.4,19.5 C18.3,19.5 16.8,20.7 16.65,22.65 L17.1,22.65 C17.25,20.925 18.6,19.875 20.55,19.875 C22.5,19.95 23.55,21.3 23.55,22.575 L24.0000001,22.575 C23.925,21.15 22.8,19.575 20.55,19.5 Z M10.35,15.45 C9.89999999,15.9 9.67499999,16.5 9.67499999,17.1 C9.67499999,18.375 10.725,19.425 12,19.425 C12,19.425 12,19.425 12,19.425 C13.275,19.425 14.325,18.45 14.325,17.175 C14.325,16.575 14.1,15.975 13.65,15.525 C13.2,15.075 12.6,14.775 12,14.775 C11.4,14.7 10.8,15 10.35,15.45 Z M13.95,17.175 C13.95,18.225 13.05,18.975 12,18.975 C12,18.975 12,18.975 12,18.975 C10.95,18.975 10.125,18.15 10.125,17.1 C10.125,16.575 10.35,16.125 10.725,15.75 C11.1,15.375 11.55,15.15 12.15,15.225 C12.675,15.225 13.125,15.45 13.5,15.825 C13.725,16.125 13.95,16.65 13.95,17.175 Z M3.59999997,19.425 C3.59999997,19.425 3.59999997,19.425 3.59999997,19.425 C4.27499997,19.425 4.87499997,19.2 5.32499997,18.75 C5.69999997,18.3 5.99999998,17.7 5.99999998,17.1 C5.99999998,16.5 5.77499997,15.9 5.39999997,15.525 C4.94999997,15.075 4.27499997,14.85 3.44999996,14.85 C2.32499996,14.85 1.34999996,15.9 1.34999996,17.175 C1.27499996,18.375 2.32499996,19.35 3.59999997,19.425 Z M3.37499996,15.225 L3.37499996,15.225 C4.04999997,15.225 4.64999997,15.45 5.02499997,15.825 C5.32499997,16.125 5.54999997,16.575 5.54999997,17.1 C5.54999997,17.625 5.32499997,18.075 5.02499997,18.45 C4.64999997,18.825 4.12499997,18.975 3.59999997,18.975 C2.54999996,18.975 1.72499996,18.15 1.72499996,17.1 C1.72499996,16.125 2.47499996,15.225 3.37499996,15.225 Z M20.25,14.775 C19.65,14.775 19.125,15 18.675,15.45 C18.225,15.9 18,16.5 18,17.1 C18,18.375 19.05,19.35 20.325,19.425 L20.325,19.425 C21,19.425 21.6,19.2 22.05,18.75 C22.5,18.3 22.725,17.7 22.725,17.1 C22.65,15.75 21.6,14.775 20.25,14.775 L20.25,14.775 Z M22.275,17.1 C22.275,17.625 22.125,18.075 21.75,18.45 C21.375,18.825 20.925,19.05 20.325,19.05 L20.325,19.05 C19.275,19.05 18.45,18.225 18.45,17.175 C18.45,16.65 18.675,16.2 18.975,15.825 C19.35,15.45 19.8,15.3 20.25,15.3 L20.25,15.3 C21.375,15.225 22.275,16.05 22.275,17.1 Z M3.89999997,10.95 L20.025,10.95 L20.025,13.35 L20.55,13.35 L20.55,10.425 L3.29999996,10.425 L3.29999996,13.35 L3.82499997,13.35 L3.82499997,10.95 L3.89999997,10.95 Z" id="path-1"></path>
    </defs>
    <g id="VW/Icons/classroom" stroke="none" stroke-width="1" fill="none" fill-rule="evenodd">
        <mask id="mask-2" fill="white">
            <use xlink:href="#path-1"></use>
        </mask>
        <g fill-rule="nonzero"></g>
        <g id="Group" mask="url(#mask-2)" fill="#000000">
            <g id="🎨-color">
                <rect id="Swatch" x="0" y="0" width="24" height="24"></rect>
            </g>
        </g>
    </g>
</svg>

<svg
    xmlns="http://www.w3.org/2000/svg"    
    x="0px"
    y="0px"
    viewBox="0 0 24 24"
    aria-labelledby="chevron down"
    role="presentation"
  >
    <title  lang="en">chevron down</title>

    <g fill="currentColor">
	<path id="path-1_00000096755185364059765070000004277607499070731165_" d="M12,6.3L12,6.3c1.4,0,2.6-1.2,2.6-2.5
		c0-0.7-0.3-1.3-0.8-1.8c-0.4-0.4-1.1-0.7-1.8-0.7c0,0,0,0-0.1,0c-1.4,0-2.5,1.1-2.5,2.5c0,0.7,0.3,1.3,0.8,1.8
		C10.7,6.1,11.3,6.3,12,6.3z M11.9,1.7C12,1.7,12,1.7,11.9,1.7c0.6,0,1.1,0.2,1.5,0.6S14,3.2,14,3.8l0,0c0,1.1-1,2-2,2.1
		c-0.6,0-1.1-0.2-1.5-0.6S9.9,4.4,9.9,3.8C9.9,2.6,10.8,1.7,11.9,1.7z M16,9.3c0-1.2-0.8-1.9-1.6-2.4c-1-0.7-1.6-0.1-2,0.4
		c-0.1,0.2-0.2,0.2-0.4,0.4c-0.1-0.1-0.3-0.2-0.4-0.4c-0.4-0.5-0.9-1-1.9-0.5C8.9,7.3,8.1,7.9,8,9.3v0.2h8V9.3z M8.5,9.1
		C8.6,8.2,9.1,7.7,10,7.3c0.7-0.4,0.9-0.1,1.3,0.4c0.2,0.2,0.4,0.4,0.6,0.5L12,8.2l0.1-0.1c0.2-0.2,0.4-0.3,0.5-0.5
		c0.4-0.4,0.8-0.8,1.5-0.3c0.8,0.5,1.3,1,1.3,1.8L8.5,9.1L8.5,9.1z M3.4,19.5C1.2,19.6,0,21.1,0,22.6h0.5c0-1.3,1.1-2.7,2.9-2.7
		c1.9-0.1,3.4,1,3.5,2.7h0.4C7.1,20.7,5.6,19.4,3.4,19.5z M12.1,19.5L12.1,19.5c-2.4,0-3.7,1.6-3.8,3.1h0.4c0-1.4,1.1-2.7,3.3-2.7
		l0,0c2,0,3.2,1.4,3.2,2.7h0.4C15.6,20.9,14.1,19.5,12.1,19.5z M20.5,19.5c-0.1,0-0.1,0-0.1,0c-2.1,0-3.6,1.2-3.8,3.1h0.5
		c0.1-1.7,1.5-2.8,3.4-2.8c2,0.1,3,1.4,3,2.7H24C23.9,21.1,22.8,19.6,20.5,19.5z M10.4,15.4c-0.5,0.4-0.7,1.1-0.7,1.7
		c0,1.3,1.1,2.3,2.3,2.3l0,0c1.3,0,2.3-1,2.3-2.2c0-0.6-0.2-1.2-0.7-1.6c-0.4-0.4-1-0.8-1.6-0.8C11.4,14.7,10.8,15,10.4,15.4z
		 M13.9,17.2c0,1.1-0.9,1.8-1.9,1.8l0,0c-1.1,0-1.9-0.8-1.9-1.9c0-0.5,0.2-1,0.6-1.4s0.8-0.6,1.4-0.5c0.5,0,1,0.2,1.4,0.6
		C13.7,16.1,13.9,16.6,13.9,17.2z M3.6,19.4L3.6,19.4c0.7,0,1.3-0.2,1.7-0.7c0.4-0.5,0.7-1,0.7-1.6s-0.2-1.2-0.6-1.6
		c-0.5-0.4-1.1-0.7-2-0.7c-1.1,0-2.1,1-2.1,2.3C1.3,18.4,2.3,19.4,3.6,19.4z M3.4,15.2L3.4,15.2c0.7,0,1.3,0.2,1.7,0.6
		c0.3,0.3,0.5,0.8,0.5,1.3s-0.2,1-0.5,1.4C4.7,18.8,4.1,19,3.6,19c-1,0-1.9-0.8-1.9-1.9C1.7,16.1,2.5,15.2,3.4,15.2z M20.2,14.8
		c-0.6,0-1.1,0.2-1.6,0.7c-0.4,0.4-0.7,1.1-0.7,1.7c0,1.3,1,2.2,2.3,2.3l0,0c0.7,0,1.3-0.2,1.7-0.7c0.5-0.5,0.7-1,0.7-1.6
		C22.6,15.8,21.6,14.8,20.2,14.8L20.2,14.8z M22.3,17.1c0,0.5-0.1,1-0.5,1.4S20.9,19,20.3,19l0,0c-1.1,0-1.9-0.8-1.9-1.9
		c0-0.5,0.2-1,0.5-1.3c0.4-0.4,0.8-0.5,1.3-0.5l0,0C21.4,15.2,22.3,16,22.3,17.1z M3.9,10.9H20v2.4h0.5v-2.9H3.3v2.9h0.5L3.9,10.9
		L3.9,10.9z"/>
</g>
</svg>
